/* XPM */
static char * date_xpm[] = {
"95 13 4 1",
" 	c #FFFFFF",
".	c #000000",
"+	c #AAAAAA",
"@	c #555555",
"    ..     +...+   +++++++   .. ..   .......   ....    .......   +..+     +..+     +..+        ",
"   @..    +.....+  .......   .. ..   .......  ......   .......  ......   ......   ......       ",
"  ....    ..+ +..  +++++..  +.. ..   ..      +.+  +..  +++++.. +.+  +.+ +.+  +.+ +.+  +.+  ++  ",
"    ..    .+   ..      +.+  ..+ ..   ..      ..            +.. ..    .. ..    .. ..    ..  ..  ",
"    ..        +..     +..   ..  ..   ....+   ..            ..+ +.+  +.+ ..    .. ..    ..  ..  ",
"    ..        ..+     ..   +..  ..   ......  .....+        ..   +....+  +.+  +.. ..    ..  ++  ",
"    ..       ...     ....  ..+  ..   ++++..+ .......      +..   ......   ....... ..    ..      ",
"    ..      ...        ..+ ..   ..       +.. ..+  +.+     ..+  +.+  +.+   +..... ..    ..      ",
"    ..     ...          .. ..+++..+       .. ..    ..     ..   ..    ..       .. ..    ..  ++  ",
"    ..    +..           .. ........       .. ..    ..    +..   ..    ..       .. ..    ..  ..  ",
"    ..    ..+++++  ..  +.+      ..   ..  +.+ +.+  +.+    ..+   +.+  +.+ ..+  +.+ +.+  +.+  ..  ",
"    ..    .......  +.....       ..   +.....   ......     ..     ......   ......   ......   ++  ",
"    ..    .......   +..+        ..    +..+     +..+     +..      +..+     ....     +..+        "};
