/* XPM */
static char * led_xpm[] = {
"122 11 4 1",
" 	c None",
".	c #000000",
"@	c #004300",
"+	c #00DF00",
"...@++++@.......@....@++++@...@++++@........@...@++++@...@++++@...@++++@...@++++@...@++++@................................",
"...+@..@+.......+........@+.......@+....@+..+...+@.......+@...........@+...+@..@+...+@..@+................................",
"..@+@...+......@+........@+.......@+...@+@.@+..@+.......@+............@+..@+...@+..@+...@+.@@.............................",
"..+@+..@+......+@........+........+@..@+@..+...+@.......+@............+@..+@...+...+@...+..++.............................",
".@+.+..+@.....@+........@+.......@+...+@...+...+@.......+............@+...+....+...+@...+..++.............................",
".+@.+.@+......+@...@+++++@....@+++@...@++++@...@+++@...@++++@........+@..@+++++@...@++++@..@@..@+@..+@.@+..+++@.+@.@+.....",
"@+..+.+@.....@+....+@.............+......@+.......@+...+...@+.......@+...+@...+........+..@@..@+@+@.++@++..+.@+.++@++.....",
"+@..+@+......+@...@+.............@+......+@.......@+..@+...@+.......+@..@+...@+.......@+..++..+@.@+.+@+@+..+.@+.+@+@+.....",
"+...@+@......+....+@.............+@.....@+........+@..+@...+@......@+...+@...+@.......+@..++..+...+.+.@.+..+++@.+.@.+.....",
"+@..@+......+@....+@............@+......+@.......@+...+@..@+.......+@...+@..@+.......@+...@@..+++++.+...+..+....+...+.....",
"@++++@......+.....@++++@...@+++++@......+....@++++@...@++++@......@+....@++++@...@++++@.......+...+.+...+..+....+...+....."};
