/* XPM */
static char * mask_xpm[] = {
"54 57 6 1",
" 	c None",
".	c #7D7D7D",
"+	c #000000",
"@	c #FFFFFF",
"#	c #818181",
"$	c #C1C1C1",
"......................................................",
".++++++++++++++++++++++++++++++++++++++++++++++++++++@",
".++++++++++++++++++++++++++++++++++++++++++++++++++++@",
".++++++++++++++++++++++++++++++++++++++++++++++++++++@",
".++++++++++++++++++++++++++++++++++++++++++++++++++++@",
".++++++++++++++++++++++++++++++++++++++++++++++++++++@",
".++++++++++++++++++++++++++++++++++++++++++++++++++++@",
".++++++++++++++++++++++++++++++++++++++++++++++++++++@",
".++++++++++++++++++++++++++++++++++++++++++++++++++++@",
".++++++++++++++++++++++++++++++++++++++++++++++++++++@",
".++++++++++++++++++++++++++++++++++++++++++++++++++++@",
".++++++++++++++++++++++++++++++++++++++++++++++++++++@",
".++++++++++++++++++++++++++++++++++++++++++++++++++++@",
".++++++++++++++++++++++++++++++++++++++++++++++++++++@",
".++++++++++++++++++++++++++++++++++++++++++++++++++++@",
".++++++++++++++++++++++++++++++++++++++++++++++++++++@",
".++++++++++++++++++++++++++++++++++++++++++++++++++++@",
"@@@@@@@@@@@@@@@@@@@@@@@@@@@@@@@@@@@@@@@@@@@@@@@@@@@@@@",
"                                                      ",
"                                                      ",
"           #################################          ",
"           #$@@@@@@@@@@@@@@@@@@@@@@@@@@@@@$##         ",
"           #@@@@@@@@@@@@@@@@@@@@@@@@@@@@@@@###        ",
"           #@@@@@@@@@@@@@@@@@@@@@@@@@@@@@@@###+       ",
"           #@@@@@@@@@@@@@@@@@@@@@@@@@@@@@@@###+       ",
"           #@@@@@@@@@@@@@@@@@@@@@@@@@@@@@@@###+       ",
"           #@@@@@@@@@@@@@@@@@@@@@@@@@@@@@@@###+       ",
"           #@@@@@@@@@@@@@@@@@@@@@@@@@@@@@@@###+       ",
"           #@@@@@@@@@@@@@@@@@@@@@@@@@@@@@@@###+       ",
"           #@@@@@@@@@@@@@@@@@@@@@@@@@@@@@@@###+       ",
"           #@@@@@@@@@@@@@@@@@@@@@@@@@@@@@@@###+       ",
"           #@@@@@@@@@@@@@@@@@@@@@@@@@@@@@@@###+       ",
"           #@@@@@@@@@@@@@@@@@@@@@@@@@@@@@@@###+       ",
"           #@@@@@@@@@@@@@@@@@@@@@@@@@@@@@@@###+       ",
"           #@@@@@@@@@@@@@@@@@@@@@@@@@@@@@@@###+       ",
"           #@@@@@@@@@@@@@@@@@@@@@@@@@@@@@@@###+       ",
"           #@@@@@@@@@@@@@@@@@@@@@@@@@@@@@@@###+       ",
"           #@@@@@@@@@@@@@@@@@@@@@@@@@@@@@@@###+       ",
"           #@@@@@@@@@@@@@@@@@@@@@@@@@@@@@@@###+       ",
"           #@@@@@@@@@@@@@@@@@@@@@@@@@@@@@@@###+       ",
"           #@@@@@@@@@@@@@@@@@@@@@@@@@@@@@@@###+       ",
"           #@@@@@@@@@@@@@@@@@@@@@@@@@@@@@@@###+       ",
"           #@@@@@@@@@@@@@@@@@@@@@@@@@@@@@@@###+       ",
"           #@@@@@@@@@@@@@@@@@@@@@@@@@@@@@@$###+       ",
"          #@@@@@@@@@@@@@@@@@@@@@@@@@@@@@@@#$##+       ",
"          #@@@@@@@@@@@@@@@@@@@@@@@@@@@@@@@#$##+       ",
"          #@@@@@@@@@@@@@@@@@@@@@@@@@@@@@@@#$##+       ",
"          #@@@@@@@@@@@@@@@@@@@@@@@@@@@@@@$#$##+       ",
"         #@@@@@@@@@@@@@@@@@@@@@@@@@@@@@@@#$$##+       ",
"         #@@@@@@@@@@@@@@@@@@@@@@@@@@@@@@$#$$##+       ",
"        #@@@@@@@@@@@@@@@@@@@@@@@@@@@@@@@#$$$##+       ",
"        #$$$$$$$$$$$$$$$$$$$$$$$$$$$$$$#$$$#$#+       ",
"        ###############################$$$$#$#+       ",
"            #$$$$$$$$$$$$$$$$$$$$$$$$$$$$$$#$#+       ",
"           #$$$$$$$$$$$$$$$$$$$$$$$$$$$$$$#$$+        ",
"           ###############################$$$+        ",
"                +++++++++++++++++++++++++++++         "};
