/* XPM */
static char * defaultIcon_xpm[] = {
"62 62 6 1",
" 	c None",
".	c #818181",
"+	c #FFFFFF",
"@	c #000000",
"#	c #444444",
"$	c #C1C1C1",
"                                                              ",
" ........................                                     ",
" .++++++++++++++++++++++@                                     ",
" .+++++++++++++++++++++.@#                                    ",
" .++$+$+$+$+$+$+$+$+$+.$@ #                                   ",
" .+++$+$+$+$+$+$+$+$+$$.@# # ........................         ",
" .++$+$+$+$+$+$+$+$+$+.$@ # #.+$+$+$+$+$+$+$+$+$+$+$@         ",
" .+++$+$+$+$+$+$+$+$+$$.@# # .$+$+$+$+$+$+$+$+$+$+$.@#        ",
" .++$+$+$+$+$+$+$+$+$+.$@ # #.+$$.$.$.$.$.$.$.$.$...@ #       ",
" .+++$+$+$+$+$+$+$+$+$$.@# # .$+.$.$.$.$.$.$.$.$.$..@# #      ",
" .++$+$+$+$+$+$+$+$+$+.$@ # #.+$$.$.$.$.$.$.$.$.$...@ # #     ",
" .+++$+$+$+$+$+$+$+$+$$.@# # .$+.$.$.$.$.$.$.$.$.$..@# # #    ",
" .++$+$+$+$+$+$+$+$+$+.$@ # #.+$$.$.$.$.$.$.$.$.$...@ # #     ",
" .+++$+$+$+$+$+$+$+$+$$.@# # .$+.$.$.$.$.$.$.$.$.$..@# # #    ",
" .++$+$+$+$+$+$+$+$+$+.$@ # #.+$$.$.$.$.$.$.$.$.$...@ # #     ",
" .+++$+$+$+$+$+$+$+$+$$.@# # .$+.$.$.$.$.$.$.$.$.$..@# # #    ",
" .++$+$+$+$+$+$+$+$+$+.$@ # #.+$$.$.$.$.$.$.$.$.$...@ # #     ",
" .+++$+$+$+$+$+$+$+$+$$.@# # .$+.$.$.$.$.$.$.$.$.$..@# # #    ",
" .++$+$+$+$+$+$+$+$+$+.$@ # #.+$$.$.$.$.$.$.$.$.$...@ # #     ",
" .+++$+$+$+$+$+$+$+$+$$.@# # .$+.$.$.$.$.$.$.$.$.$..@# # #    ",
" .++$+$+$+$+$+$+$+$+$+.$@ # #.+$$.$.$.$.$.$.$.$.$...@ # #     ",
" .+++$+$+$+$+$+$+$+$+$$.@# # .$+.$.$.$.$.$.$.$.$.$..@# # #    ",
" .+$.$.$.$.$.$.$.$.$.$.$@ # #.+$$.$.$.$.$.$.$.$.$...@ # #     ",
" .$.$.$.$.$.$.$.$.$.$.$.@# # .$+.$.$.$.$.$.$.$.$.$..@# # #    ",
" @@@@@@@@@@@@@@@@@@@@@@@@ # #.+$$.$.$.$.$.$.$.$.$...@ # #     ",
"   # # # # # # # # # # # # # .$+.$.$.$.$.$.$.$.$.$..@# # #    ",
"    # # # # # # # # # # # # #.+.....................@ # #     ",
"     # # # # # # # # # # # # .......................@# # #    ",
"      # # # # # # # # # # # #@@@@@@@@@@@@@@@@@@@@@@@@ # #     ",
"     ........................# # # # # # # # # # # # # # #    ",
"     .+$+$+$+$+$+$+$+$+$+$+$@   # # # # # # # # # # # # #     ",
"     .$+$+$+$+$+$+$+$+$+$+$.@#   # # # # # # # # # # # # #    ",
"     .+$$.$.$.$.$.$.$.$.$...@ #   # # # # # # # # # # # #     ",
"     .$+.$.$.$.$.$.$.$.$.$..@# # ........................#    ",
"     .+$$.$.$.$.$.$.$.$.$...@ # #.++++++++++++++++++++++@     ",
"     .$+.$.$.$.$.$.$.$.$.$..@# # .+++++++++++++++++++++.@#    ",
"     .+$$.$.$.$.$.$.$.$.$...@ # #.++$+$+$+$+$+$+$+$+$+.$@ #   ",
"     .$+.$.$.$.$.$.$.$.$.$..@# # .+++$+$+$+$+$+$+$+$+$$.@# #  ",
"     .+$$.$.$.$.$.$.$.$.$...@ # #.++$+$+$+$+$+$+$+$+$+.$@ # # ",
"     .$+.$.$.$.$.$.$.$.$.$..@# # .+++$+$+$+$+$+$+$+$+$$.@# # #",
"     .+$$.$.$.$.$.$.$.$.$...@ # #.++$+$+$+$+$+$+$+$+$+.$@ # # ",
"     .$+.$.$.$.$.$.$.$.$.$..@# # .+++$+$+$+$+$+$+$+$+$$.@# # #",
"     .+$$.$.$.$.$.$.$.$.$...@ # #.++$+$+$+$+$+$+$+$+$+.$@ # # ",
"     .$+.$.$.$.$.$.$.$.$.$..@# # .+++$+$+$+$+$+$+$+$+$$.@# # #",
"     .+$$.$.$.$.$.$.$.$.$...@ # #.++$+$+$+$+$+$+$+$+$+.$@ # # ",
"     .$+.$.$.$.$.$.$.$.$.$..@# # .+++$+$+$+$+$+$+$+$+$$.@# # #",
"     .+$$.$.$.$.$.$.$.$.$...@ # #.++$+$+$+$+$+$+$+$+$+.$@ # # ",
"     .$+.$.$.$.$.$.$.$.$.$..@# # .+++$+$+$+$+$+$+$+$+$$.@# # #",
"     .+$$.$.$.$.$.$.$.$.$...@ # #.++$+$+$+$+$+$+$+$+$+.$@ # # ",
"     .$+.$.$.$.$.$.$.$.$.$..@# # .+++$+$+$+$+$+$+$+$+$$.@# # #",
"     .+.....................@ # #.++$+$+$+$+$+$+$+$+$+.$@ # # ",
"     .......................@# # .+++$+$+$+$+$+$+$+$+$$.@# # #",
"     @@@@@@@@@@@@@@@@@@@@@@@@ # #.++$+$+$+$+$+$+$+$+$+.$@ # # ",
"       # # # # # # # # # # # # # .+++$+$+$+$+$+$+$+$+$$.@# # #",
"        # # # # # # # # # # # # #.+$.$.$.$.$.$.$.$.$.$.$@ # # ",
"         # # # # # # # # # # # # .$.$.$.$.$.$.$.$.$.$.$.@# # #",
"          # # # # # # # # # # # #@@@@@@@@@@@@@@@@@@@@@@@@ # # ",
"           # # # # # # # # # # # # # # # # # # # # # # # # # #",
"                                    # # # # # # # # # # # # # ",
"                                     # # # # # # # # # # # # #",
"                                      # # # # # # # # # # # # ",
"                                       # # # # # # # # # # # #"};
