/* XPM */
static char * overlay_xpm[] = {
"72 72 122 2",
"  	c None",
". 	c #666666",
"+ 	c #5F5F5F",
"@ 	c #636363",
"# 	c #6B6B6B",
"$ 	c #6A6A6A",
"% 	c #5E5E5E",
"& 	c #686868",
"* 	c #696969",
"= 	c #676767",
"- 	c #656565",
"; 	c #626262",
"> 	c #646464",
", 	c #616161",
"' 	c #595959",
") 	c #5D5D5D",
"! 	c #606060",
"~ 	c #5A5A5A",
"{ 	c #C8C8C8",
"] 	c #FFFFFF",
"^ 	c #5C5C5C",
"/ 	c #878787",
"( 	c #A4A4A4",
"_ 	c #E2E2E2",
": 	c #DFDFDF",
"< 	c #DDDDDD",
"[ 	c #A1A1A1",
"} 	c #CBCBCB",
"| 	c #C6C6C6",
"1 	c #B0B0B0",
"2 	c #CDCDCD",
"3 	c #BDBDBD",
"4 	c #C7C7C7",
"5 	c #BABABA",
"6 	c #C9C9C9",
"7 	c #A7A7A7",
"8 	c #9C9C9C",
"9 	c #929292",
"0 	c #AAAAAA",
"a 	c #B1B1B1",
"b 	c #EEEEEE",
"c 	c #E6E6E6",
"d 	c #E7E7E7",
"e 	c #DEDEDE",
"f 	c #DCDCDC",
"g 	c #E1E1E1",
"h 	c #DADADA",
"i 	c #D9D9D9",
"j 	c #DBDBDB",
"k 	c #E0E0E0",
"l 	c #E4E4E4",
"m 	c #D6D6D6",
"n 	c #D8D8D8",
"o 	c #D7D7D7",
"p 	c #CFCFCF",
"q 	c #E5E5E5",
"r 	c #E8E8E8",
"s 	c #EBEBEB",
"t 	c #EDEDED",
"u 	c #969696",
"v 	c #C4C4C4",
"w 	c #C2C2C2",
"x 	c #C5C5C5",
"y 	c #C1C1C1",
"z 	c #A5A5A5",
"A 	c #9B9B9B",
"B 	c #B4B4B4",
"C 	c #CACACA",
"D 	c #E3E3E3",
"E 	c #CECECE",
"F 	c #CCCCCC",
"G 	c #D4D4D4",
"H 	c #9A9A9A",
"I 	c #BEBEBE",
"J 	c #A9A9A9",
"K 	c #909090",
"L 	c #C0C0C0",
"M 	c #D0D0D0",
"N 	c #C3C3C3",
"O 	c #919191",
"P 	c #D1D1D1",
"Q 	c #ADADAD",
"R 	c #B5B5B5",
"S 	c #BFBFBF",
"T 	c #D2D2D2",
"U 	c #A3A3A3",
"V 	c #EAEAEA",
"W 	c #AEAEAE",
"X 	c #D5D5D5",
"Y 	c #D3D3D3",
"Z 	c #A8A8A8",
"` 	c #B3B3B3",
" .	c #AFAFAF",
"..	c #9F9F9F",
"+.	c #BCBCBC",
"@.	c #999999",
"#.	c #9E9E9E",
"$.	c #8E8E8E",
"%.	c #B6B6B6",
"&.	c #989898",
"*.	c #979797",
"=.	c #8F8F8F",
"-.	c #ACACAC",
";.	c #BBBBBB",
">.	c #949494",
",.	c #B8B8B8",
"'.	c #B7B7B7",
").	c #E9E9E9",
"!.	c #939393",
"~.	c #8C8C8C",
"{.	c #ABABAB",
"].	c #A0A0A0",
"^.	c #B2B2B2",
"/.	c #B9B9B9",
"(.	c #959595",
"_.	c #5B5B5B",
":.	c #A2A2A2",
"<.	c #9D9D9D",
"[.	c #EFEFEF",
"}.	c #A6A6A6",
"|.	c #ECECEC",
"1.	c #8D8D8D",
"                                                                                                                                                ",
"                                                                                                                                                ",
"                                                                                                                                                ",
"                                                                                                                                                ",
"                                                                                                                                                ",
"                                                                                                                                                ",
"                                                                                                                                                ",
"                                                                                                                                                ",
"                                                                                                                                                ",
"                  . + @ # $ # $ # # . % $ & . * & $ # # = - * ; > = , @ ' ' ' ) + + ! + @ @ > > ; * * @ + = $ # & # = # & & #                   ",
"                  & , + # # $ $ # & > ! $ & $ $ # . $ & * # ! . - ; ! ~ ' ; { @ @ > @ > - & # - = = = = $ . * & . # * = * ' ]                   ",
"                  ; ^ / / ( ( _ : < _ [ } | 1 } 2 2 3 4 5 | 6 7 8 9 0 a b c d e f g h : i < j h j k i : f l m n o 2 o p 6 ] ]                   ",
"                  ' % q _ q r s t u / / 0 2 } 2 v w x 3 y z u A B C C ( r _ c f j e : k j < n g : D h D E < m o g p F } F ] ]                   ",
"                  - = k < k o < G g n c / H 4 C C C I J K J L C F M N O d k D _ i o q j q k k e f D { h P o j p C p C C 2 ] ]                   ",
"                  - & j j h < j j i g k g O K Q R H K a 4 C 6 } x M S 9 c c g g d l _ h < o j D e m k 6 o E 6 M 2 6 E N N ] ]                   ",
"                  & - < j o e j k T T i h f U / H y x F C p P F | | 1 V j _ l h r i f j h n j _ n } h o o n g j 6 E o C p ] ]                   ",
"                  - W X f Y h i < < i X i Y P K C p { 6 p M 2 C } N H c m C l g : n D 6 < C < i o 6 2 n F o E M p | y { w ] ]                   ",
"                  $ W i f e i P j o < G G m Y Z ` F C 2 M } E C 2 w / D _ g } f < } D h D k f h q } _ i } < E m p p N S { ] ]                   ",
"                  & 1 G g T G P m Y m P T h i o O p 6 { M | | S w  ...h j < M n o < C P i < C d o 2 m F p E o p E N } +.p ] ]                   ",
"                  > > Y Y o G Y P n X T G i m Y @.I p E E F } N L #.c e i F l k l g j : } n j C < N E j p M h C M 2 N N W ] ]                   ",
"                  = # < X o e Y T G o Y T Y T X g @.2 M M 6 w { L $.q _ D k j f : 6 } e 2 M g C i F E M n E N F N E S %./ ] ]                   ",
"                  # = e Y n m X P T X T T m T j T 9 4 N x 4 w 6 a &.k e n < : m i < 2 < j j o p i M p o } { p w F M p *.=.] ]                   ",
"                  & # o T T i m X o G Y X h m i G 0 -.F 6 4 x 4 W J j D j j 6 2 2 o f 6 C | P 2 F 2 < } p E p | C ;.q / i ] ]                   ",
"                  = # T X T i G T T G j T Y P T m h K v w 6 4 4 >.: e F E 6 f o C M C M M 6 F } ,.w y 2 E C x 3 n S O V o ] ]                   ",
"                  = = m T T o T i m m X n f m m m m (  .v ;.4 v / o o j e n M C E p F } x F 6 n 6 4 C o C 5 N 4 2 7 K X P ] ]                   ",
"                  $ . k P m T T T Y G G o o T T T i e &.N C +.../ : : o < j g p M n m C C j F y x n N { { o N '.R / c n o ] ]                   ",
"                  # # P T Y X X G i f o G Y m i < Y o &.;.I 8 ).!.~.N < m M } F j 3 C 6 2 v C o M M C E 6 M 2 5 K &.G n P ] ]                   ",
"                  # & Y X P T T T T i X n i m X T o j {.]...c e ;.$.H M i j N C n E M x n N M P E v C } E 6 S a / n T h Y ] ]                   ",
"                  > # m o T i o o T X o h m P X < j k &./ c f k { './ ^.} x o M C M M F 2 p C '.M N /.p v 5 B / d j o G P ] ]                   ",
"                  ! = i j m T T Y j Y h n j i n : u / (.q D f e | C J / N p n P p E F p m 2 ;.} E C | | | L u K T T G P T ] ]                   ",
"                  $ _.o X P Y X T X j i i f i ../ 9 %._ : g S f N { < u O y i o M 4 o 2 6 o 2 E p ;.v F C  ./ < i Y i X h ] ]                   ",
"                  = * 9 X G T X T m n j f ]./ ~.{.L g N : < N F 6 | 6 C O [ F i E L C 4 j 3 S M w N 3 N R K s T m j P Y T ] ]                   ",
"                  . # X ( Y T o T m m J / $.V < v S _ k L e L < 6 p M C +./ ` S F 2 F } | | L C { x %.N -.=.h X i n T T o ] ]                   ",
"                  @ $ G +.[ n h n {.K / ).: e k : q L < f S e } 6 S p } 2 Z / / U #.R  .E w { x y v N a / _ T Y T n G Y T ] ]                   ",
"                  + $ T T ;.k ^.$./ U q : L N g e D y { N k I } C M M E P } / n g k :.:./ / ..<.J  .N $.*.T G T Y G G n T ] ]                   ",
"                  + # Y T T U / <.D _ : f M F 4 F w p < L 6 < M } x E 2 F x O i m X Y T T Y < : ( U / / o m n n G T G T G ] ]                   ",
"                  ' $ T T P ;.A } f < < L g e g y I { 4 4 I M 2 { M R S p C #.: G Y T T X X T T P P T O i n T m Y T Y T T ] ]                   ",
"                  ! _.P T P 5 [.3 < _ { } : C v 6 v C k 6 M E M p { E M y 2 }.-.T G T P G T G T P T T 0 q P o i P T m G i ] ]                   ",
"                  = ; X T T ` :.k g f e L } x w e v < | x p M L w M N L w C J :.P T G G Y T T T P T G i K i X h Y n T T j ] ]                   ",
"                  $ * K T P ( 1 F 2 l I y I 6 6 p w y F L p x v 5 L C w 6 F  ./ / :.U e e o Y G T G T Y A < G G T T j T T ] ]                   ",
"                  # * q m T U a C : F f | 6 x C 2 6 N | | C p 4 < } C N M } J ..q V D t |.=./ H :.-.< j < ( T T Y X h T f ] ]                   ",
"                  & $ i =.Y 9 k { f } 4 M E I 6 } C N } | p M 6 w F S E 2 F ..s g j D g m j M k g a t !./ / / H V U c g h ] ]                   ",
"                  $ # p ` X / { N e 2 } 6 E x F N N C 4 2 E 2 4 p 6 N y N I ~.q : m D : f j j < j j D h 2 2 j k g ].#.H / ] ]                   ",
"                  # - 2 } K / 6 6 F v x 2 | | 2 p M y | 2 6 ;.6 F L 6 B ,.{ / j q e g j g j : l p T o e T m m o p Y 2 { { ] ]                   ",
"                  # # G 6 q / ( C C F e 2 } 2 E v F } } S N 2 C S I | S w Q / g d h _ c e X h T k e k j M o F v p E G N L ] ]                   ",
"                  # # X m E 0 / ( x N y F < | M 4 P } { N +.w I ;.5 6 C B ( [.f e D f P Y j _ g j Y o n C j P n e Y T X M ] ]                   ",
"                  & * G m w { 5 $.O 3 C 2 F E P C } N x y 2 { } x x w B ^.( d g q o f Y h f : G D G j h } M i G M { o D 6 ] ]                   ",
"                  & > w v C 2 6 { H / -.C x E p 6 N { L ;.p { I 4 ` %.%.{ 1.q f n < : j j h q 2 j { 2 C i P M v p X L w M ] ]                   ",
"                  = = o X p i | 5 3 7 / ( N E E w p } ;.F 5 5 y ;.C B L +./ : j k e p n C o M < k } E X M M X j G N | | N ] ]                   ",
"                  # # p X I 2 | F x N ;.O =.B p N y Q 0 -.^.........H / / / e T e _ e j h X M X | i o } 2 6 G N m L N E %.] ]                   ",
"                  & # E E N v ;.{ N S N +.&./ / / (.].U #.U +.'.R /.w N :.).e Y e < < h n 2 Y n j j Y C C x M w v C w x N ] ]                   ",
"                  & = P E 4 C %.M v 4 /.J ;.:.L C { { E { M C F p p p ;.t o m X T o i o F G G X i C F X T N S o p 4 %.w p ] ]                   ",
"                  * $ M C E S } 3 ,.y F 3 ]. .6 { 4 { E 2 v C C { 4 +.>.j D e o g P n e o m | M C v N | 2 B M C 5 v T 5 H ] ]                   ",
"                  # $ I 2 M 3 v C C +.S ;.1.y 6 } C 4 p C p 2 M F w =.n m h e Y 2 } 2 G M M < C 3 n x P x T 5 5 P l I J / ] ]                   ",
"                  # $ +.M 2 3 L -.v R +.;.&.M p C N } 6 C F p F 6 9 { e m j e Y f j n o T +.i T ;.+.w N /.6 M N F +.0 / c ] ]                   ",
"                  # # { } P 3 5  .3 R x :.1 4 M C E M 2 E M } 2 U ,.i Y n o F n i o M T Y 4 p X P N 2 } /.L w 2 E ` =.8 j ] ]                   ",
"                  * * { w P '.x y ;.} a !.N P 2 2 { p C 4 x x W d p i j i T P h X w o o i X M C N L p p | I { +.w $.:.2 x ] ]                   ",
"                  # . F 3 I | 4 | /.'.y =.M E M P 6 6 6 w | ;.U g i f X n } X G X | { E M 3 N L F %.| v X D /.N ..<.F F } ] ]                   ",
"                  . & M 3 y } x v N a Z 0 { 6 p { F 2 p | I $.n h f < } x ;.} N G x C B T Y } 4 5 v y v 4 ;.+.[ ( F < p p ] ]                   ",
"                  # . } '.w v /./. .R (.'.M } F E | F { ;.O S j m j } M Y Y Y P x T p | I C ;.} '.F R I ;.m  .K x 4 { i E ] ]                   ",
"                  # = C { v C L /.x ^./ C 2 F C p N x 4 ..;.j p } Y ;.X p C X < 4 j C S C y v C 3 2 C { y %.$.f < h i P E ] ]                   ",
"                  # ] ] ] ] ] ] ] ] ] ] ] ] ] ] ] ] ] ] ] ] ] ] ] ] ] ] ] ] ] ] ] ] ] ] ] ] ] ] ] ] ] ] ] ] ] ] ] ] ] ] ] ] ]                   ",
"                  ] ] ] ] ] ] ] ] ] ] ] ] ] ] ] ] ] ] ] ] ] ] ] ] ] ] ] ] ] ] ] ] ] ] ] ] ] ] ] ] ] ] ] ] ] ] ] ] ] ] ] ] ] ]                   ",
"                                                                                                                                                ",
"                                                                                                                                                ",
"                                                                                                                                                ",
"                                                                                                                                                ",
"                                                                                                                                                ",
"                                                                                                                                                ",
"                                                                                                                                                ",
"                                                                                                                                                ",
"                                                                                                                                                "};
