/* XPM */
static char * terminal_xpm[] = {
"55 50 8 1",
" 	c None",
".	c #818181",
"+	c #C1C1C1",
"@	c #000000",
"#	c #FFFFFF",
"$	c #444444",
"%	c #00FF00",
"&	c #008100",
"             ...............................           ",
"            .++++++++++++++++++++++++++++..@           ",
"           .++++++++++++++++++++++++++++...@           ",
"          .############################....@           ",
"         .#++++++++++++++++++++++++++++....@           ",
"         .#++++++++++++++++++++++++++++....@           ",
"         .#++@@@@@@@@@@@@@@@@@@@@@@@#++....@           ",
"         .#++@$$$$$$$$$$$$$$$$$$$$$+#++....@           ",
"         .#++@$$$$$$$$$$$$$$$$$$$$$+#++....@           ",
"         .#++@$$#####$###$$$$$$$$$$+#++....@           ",
"         .#++@$$$$$$$$$$$$$$$$$$$$$+#++....@           ",
"         .#++@$$#######$######$$$$$+#++....@           ",
"         .#++@$$$$$$$$$$$$$$$$$$$$$+#++....@           ",
"         .#++@$$##############$$$$$+#++....@           ",
"         .#++@$$$$$$$$$$$$$$$$$$$$$+#++....@           ",
"         .#++@$$$$$$$$$$$$$$$$$$$$$+#++....@           ",
"         .#++@$$$$$$$$$$$$$$$$$$$$$+#++....@           ",
"         .#++@$$$$$$$$$$$$$$$$$$$$$+#++....@           ",
"         .#++@$$##$$$$$$$$$$$$$$$$$+#++....@           ",
"         .#++@$$$##$$$$$$$$$$$$$$$$+#++....@           ",
"         .#++@$$$$##$$$$$$$$$$$$$$$+#++....@           ",
"         .#++@$$$##$$$$$$$$$$$$$$$$+#++....@$ $ $ $ $ $",
"         .#++@$$##$$####$$$$$$$$$$$+#++....@ $ $ $ $ $ ",
"         .#++@$$$$$$$$$$$$$$$$$$$$$+#++....@$ $ $ $ $  ",
"         .#++@++++++++++++++++++++++#++....@ $ $ $ $   ",
"         .#++########################++....@$ $ $ $    ",
"         .#++++++++++++++++++++++++++++...@$ $ $ $     ",
"         .#++++++++++++++++++++++++++++..@$ $ $ $      ",
"         ...............................@..... $       ",
"          @@@@@@@@@@@@@@@@@@@@@@@@@@@@@@.....+@        ",
"           ....@++@@@@@@@@@@@@@@@++.@.......+.@        ",
"          ....@....................@.......+..@ $ $ $ $",
"         .....@@@@@@@@@@@@@@@@@@@@@.......+...@$ $ $ $ ",
"        .................................+....@ $ $ $  ",
"       .#################################.....@$ $ $   ",
"       .#++++++++++++++++++++++++++++++++.....@ $ $    ",
"       .#+%%&+++++++++++++++..........+++.....@$ $     ",
"       .#+%%&++++++++++++++++@@@@@@@@.+++.....@ $      ",
"       .#+&&&++++++++++++++++++++++++++++.....@$       ",
"      ...............................++++.....@        ",
"     .###############################.+++....@         ",
"    .#+#.@##.@##.@##.@##.@##.@##.@+++.+++...@          ",
"   .#+#.@##.@##.@##.@##.@##.@##.@+++..+++..@           ",
"  .#+#.@##.@##.@##.@##.@##.@##.@+++..@@@@@@            ",
" .#+#.@##.@##.@##.@##.@##.@##.@+++..@                  ",
".#+++++++++++++++++++++++++++++++..@                   ",
".##############################+..@                    ",
".#+++++++++++++++++++++++++++++..@                     ",
"................................@                      ",
" @@@@@@@@@@@@@@@@@@@@@@@@@@@@@@@                       "};
