/* XPM */
static char * weekday_xpm[] = {
"20 49 2 1",
" 	c #FFFFFF",
".	c #000000",
"                    ",
"                    ",
" .   .  ...  .   .  ",
" .. .. .   . ..  .  ",
" . . . .   . . . .  ",
" .   . .   . .  ..  ",
" .   .  ...  .   .  ",
"                    ",
"                    ",
" ..... .   . .....  ",
"   .   .   . .      ",
"   .   .   . ...    ",
"   .   .   . .      ",
"   .    ...  .....  ",
"                    ",
"                    ",
" .   . ..... ....   ",
" .   . .     .   .  ",
" . . . ...   .   .  ",
" .. .. .     .   .  ",
" .   . ..... ....   ",
"                    ",
"                    ",
" ..... .   . .   .  ",
"   .   .   . .   .  ",
"   .   ..... .   .  ",
"   .   .   . .   .  ",
"   .   .   .  ...   ",
"                    ",
"                    ",
" ..... ....  .....  ",
" .     .   .   .    ",
" ...   ....    .    ",
" .     .   .   .    ",
" .     .   . .....  ",
"                    ",
"                    ",
"  ....  ...  .....  ",
" .     .   .   .    ",
"  ...  .....   .    ",
"     . .   .   .    ",
" ....  .   .   .    ",
"                    ",
"                    ",
"  .... .   . .   .  ",
" .     .   . ..  .  ",
"  ...  .   . . . .  ",
"     . .   . .  ..  ",
" ....   ...  .   .  "};
